X: 1
T:Green Fields of America -- Reel
M:2/4
L:1/16
R:reel
B:Ryan's Mammoth Collection
Z:Contributed by Ray Davies,  ray:davies99.freeserve.co.uk
K:G
u(AB)|
.c2(ec) .B2(dB) | {B}AGAB AGEF | GAGE DEGB | {B}AGAB AGEB |
.c2(ec) .B2(dB) | {B}AGAB AGEF | GAGE DEGA | BGAF G2     ::
uD2|
GABc .d2(ef) | {a}gfge dBGB | .c2(ec) .B2(dB) | {B}AGAB (AG).E2 |
{a}gfge dBGB |    cABG AGEF |  GAGE  DEGA     |    BGAF G2     :|
